pics/icons/16x16/actions/date-filter-period.svg

<svg xmlns="http://www.w3.org/2000/svg" xmlns:xlink="http://www.w3.org/1999/xlink" width="16" height="16">
 <g transform="translate(0 -1036.362)">
  <image y="1052.075" x="-22.536" xlink:href="data:image/png;base64,iVBORw0KGgoAAAANSUhEUgAAABAAAAAQCAYAAAAf8/9hAAAABmJLR0QA+wD7APtVWW2WAAAACXBI WXMAAAsSAAALEgHS3X78AAAAB3RJTUUH1QYDDx0rS16vEwAAAD50RVh0Q29tbWVudABDcmVhdGVk IHdpdGggVGhlIEdJTVAKCihjKSAyMDAzIEpha3ViICdqaW1tYWMnIFN0ZWluZXInM+9YAAABnklE QVQ4y52TsYoaURSGvztzZxxQULAQewsFEYIBFXwFKwnBYgvB4G4xtbW9xIAgWqdNL/oCYiUiwSYh lYWtkMXZMN4UMndn1t0lm1PNnHvOd8//nxnx4WPzG9Dk/2IigWb3092bO+PxOJ+/DG5lkNhsNgAI If4JUKvVAJAAmUyGUql01SyEeDYnpeR8Pl8A5XfvKRaLJJPJyATh5qcgx3FIpVIsFgvkSzc+fQ7C NE0MwwDA804Y4ebJZEK1WiWfz+O6rs6Xy2Wy2Syn0wkhBL7va2AE0Ol0WK1W9Pt9ZrOZ1jkajS56 pcS2bUzT1AAZBux2O9rtNofDAdd1daFt27rGMIyIJCPsQS6XY71eMxgMGI/H+L4f0SylRCmFZVnX EwD0ej2WyyWe59HtdnEcB8uyaLVa1Ot15vM5jUaDWCz2vITpdKpHDHYthGC/3+sNSCkjEjQgnU5r 0wKXlVIopRBCoJTC9319lkgkHgHH45HhcHj1Dbz2XigULoCHhz9st1sqlcqLxeEIDA18kNvvmxvg 6/397zf/kT9//bj5C2iCffYtKWvvAAAAAElFTkSuQmCC" preserveAspectRatio="none" height="16" width="16" image-rendering="optimizeSpeed"/>
  <rect ry=".697" rx=".697" y="1040.078" x="1.335" height="11.104" width="13.823" opacity=".25" stroke="#000" stroke-linecap="round" stroke-linejoin="round"/>
  <rect width="14" height="11.964" x=".493" y="1038.92" rx=".999" ry=".999" fill="#fff" stroke="#787877" stroke-linecap="round" stroke-linejoin="round"/>
  <rect width="10.037" height="7.96" x="2.497" y="1040.892" rx="0" ry="0" opacity=".5" stroke="#000" stroke-linecap="round" stroke-linejoin="round"/>
  <path d="M3.56 1039.977v9.839m1.928-9.839v9.839m2.002-9.839v9.839m2.003-9.839v9.839m2.002-9.839v9.839m2.065-7.972H1.593m11.967 2.026H1.593m11.967 2.003H1.593m11.967 2.003H1.593" fill="#fff" fill-rule="evenodd" stroke="#fff"/>
  <path fill="#fff" stroke="#fff" stroke-linecap="round" stroke-linejoin="round" d="M7.713 1047.814h5.686v1.953H7.713z"/>
 </g>
</svg>

<svg xmlns="http://www.w3.org/2000/svg" xmlns:xlink="http://www.w3.org/1999/xlink" width="16" height="16"><g transform="translate(0 -1036.362)"><image y="1052.075" x="-22.536" xlink:href="data:image/png;base64,iVBORw0KGgoAAAANSUhEUgAAABAAAAAQCAYAAAAf8/9hAAAABmJLR0QA+wD7APtVWW2WAAAACXBI WXMAAAsSAAALEgHS3X78AAAAB3RJTUUH1QYDDx0rS16vEwAAAD50RVh0Q29tbWVudABDcmVhdGVk IHdpdGggVGhlIEdJTVAKCihjKSAyMDAzIEpha3ViICdqaW1tYWMnIFN0ZWluZXInM+9YAAABnklE QVQ4y52TsYoaURSGvztzZxxQULAQewsFEYIBFXwFKwnBYgvB4G4xtbW9xIAgWqdNL/oCYiUiwSYh lYWtkMXZMN4UMndn1t0lm1PNnHvOd8//nxnx4WPzG9Dk/2IigWb3092bO+PxOJ+/DG5lkNhsNgAI If4JUKvVAJAAmUyGUql01SyEeDYnpeR8Pl8A5XfvKRaLJJPJyATh5qcgx3FIpVIsFgvkSzc+fQ7C NE0MwwDA804Y4ebJZEK1WiWfz+O6rs6Xy2Wy2Syn0wkhBL7va2AE0Ol0WK1W9Pt9ZrOZ1jkajS56 pcS2bUzT1AAZBux2O9rtNofDAdd1daFt27rGMIyIJCPsQS6XY71eMxgMGI/H+L4f0SylRCmFZVnX EwD0ej2WyyWe59HtdnEcB8uyaLVa1Ot15vM5jUaDWCz2vITpdKpHDHYthGC/3+sNSCkjEjQgnU5r 0wKXlVIopRBCoJTC9319lkgkHgHH45HhcHj1Dbz2XigULoCHhz9st1sqlcqLxeEIDA18kNvvmxvg 6/397zf/kT9//bj5C2iCffYtKWvvAAAAAElFTkSuQmCC" preserveAspectRatio="none" height="16" width="16" image-rendering="optimizeSpeed"/><text style="line-height:125%;-inkscape-font-specification:'Source Code Pro, monospace, Bold';text-align:start" x="2.274" y="1044.587" font-weight="700" font-size="9.992" font-family="'Source Code Pro',monospace" letter-spacing="0" word-spacing="0"/><rect ry=".697" rx=".697" y="1040.078" x="1.335" height="11.104" width="13.823" opacity=".25" stroke="#000" stroke-linecap="round" stroke-linejoin="round"/><rect width="14" height="11.964" x=".493" y="1038.92" rx=".999" ry=".999" fill="#fff" stroke="#787877" stroke-linecap="round" stroke-linejoin="round"/><rect width="10.037" height="7.96" x="2.497" y="1040.892" rx="0" ry="0" opacity=".5" stroke="#000" stroke-linecap="round" stroke-linejoin="round"/><path d="M3.56 1039.977v9.839M5.488 1039.977v9.839M7.49 1039.977v9.839M9.493 1039.977v9.839M11.495 1039.977v9.839M13.56 1041.844H1.593M13.56 1043.87H1.593M13.56 1045.873H1.593M13.56 1047.876H1.593" fill="#fff" fill-rule="evenodd" stroke="#fff"/><path fill="#fff" stroke="#fff" stroke-linecap="round" stroke-linejoin="round" d="M7.713 1047.814h5.686v1.953H7.713z"/></g></svg>
